X: 32983
T: Pretty Girls Of Gorey
R: reel
M: 4/4
K: Dmajor
|:BE E2 BAFA|BE E2 dAFA||BE E2 Bcdf|ecdB A2 FA:|
Beeg fded|Beed B2 AF|Beeg fdec|dBAF BE E2|
Beeg fded|Beed B2 AF|ABde fdec|dBAF B2 Bc|

